core/img/actions/rename.svg

<?xml version="1.0" encoding="UTF-8" standalone="no"?>
<svg xmlns:rdf="http://www.w3.org/1999/02/22-rdf-syntax-ns#" xmlns="http://www.w3.org/2000/svg" height="16" width="16" version="1.1" xmlns:cc="http://creativecommons.org/ns#" xmlns:dc="http://purl.org/dc/elements/1.1/">
 <g transform="translate(0 -1036.4)">
  <path d="m12.594 1.3438c-0.532-0.0313-1.094 0.1562-1.594 0.6562l3 3c1.5-1.5 0.188-3.5625-1.406-3.6562zm-2.594 1.6562l-7 7-2 5 5-2 7-7-3-3zm-6.5 7.5l2 2-2.5 1.5-1-1 1.5-2.5z" transform="translate(0 1036.4)"/>
 </g>
</svg>

<?xml version="1.0" encoding="UTF-8" standalone="no"?>
<!-- Created with Inkscape (http://www.inkscape.org/) -->

<svg
   xmlns:dc="http://purl.org/dc/elements/1.1/"
   xmlns:cc="http://creativecommons.org/ns#"
   xmlns:rdf="http://www.w3.org/1999/02/22-rdf-syntax-ns#"
   xmlns:svg="http://www.w3.org/2000/svg"
   xmlns="http://www.w3.org/2000/svg"
   xmlns:sodipodi="http://sodipodi.sourceforge.net/DTD/sodipodi-0.dtd"
   xmlns:inkscape="http://www.inkscape.org/namespaces/inkscape"
   width="16"
   height="16"
   id="svg3875"
   version="1.1"
   inkscape:version="0.48.1 r9760"
   sodipodi:docname="rename.svg"
   inkscape:export-filename="/home/jancborchardt/rename.png"
   inkscape:export-xdpi="90"
   inkscape:export-ydpi="90">
  <defs
     id="defs3877" />
  <sodipodi:namedview
     id="base"
     pagecolor="#ffffff"
     bordercolor="#666666"
     borderopacity="1.0"
     inkscape:pageopacity="0.0"
     inkscape:pageshadow="2"
     inkscape:zoom="8.9609376"
     inkscape:cx="13.152158"
     inkscape:cy="4.0337477"
     inkscape:document-units="px"
     inkscape:current-layer="layer1"
     showgrid="true"
     inkscape:window-width="1280"
     inkscape:window-height="776"
     inkscape:window-x="0"
     inkscape:window-y="24"
     inkscape:window-maximized="1">
    <inkscape:grid
       type="xygrid"
       id="grid3883"
       empspacing="5"
       visible="true"
       enabled="true"
       snapvisiblegridlinesonly="true" />
  </sodipodi:namedview>
  <metadata
     id="metadata3880">
    <rdf:RDF>
      <cc:Work
         rdf:about="">
        <dc:format>image/svg+xml</dc:format>
        <dc:type
           rdf:resource="http://purl.org/dc/dcmitype/StillImage" />
        <dc:title />
      </cc:Work>
    </rdf:RDF>
  </metadata>
  <g
     inkscape:label="Layer 1"
     inkscape:groupmode="layer"
     id="layer1"
     transform="translate(0,-1036.3622)">
    <path
       style="fill:#000000;fill-opacity:1;stroke:none"
       d="M 12.59375 1.34375 C 12.0625 1.3125 11.5 1.5 11 2 L 14 5 C 15.5 3.5 14.1875 1.4375 12.59375 1.34375 z M 10 3 L 3 10 L 1 15 L 6 13 L 13 6 L 10 3 z M 3.5 10.5 L 5.5 12.5 L 3 14 L 2 13 L 3.5 10.5 z "
       transform="translate(0,1036.3622)"
       id="path3086" />
  </g>
</svg>
